gama.ui.shared/icons_svg/dark/display/toolbar.regular.svg

<svg height="25" viewBox="-489.831 -3314.16 25 25" width="25" xmlns="http://www.w3.org/2000/svg"><g fill="none"><path d="m-485.49053-3313.6597h16.31999c2.12078 0 3.84001 1.7192 3.84001 3.84v16.32c0 2.1207-1.71923 3.84-3.84001 3.84h-16.31999c-2.12077 0-3.84-1.7193-3.84-3.84v-16.32c0-2.1208 1.71923-3.84 3.84-3.84z" fill="#666"/><path d="m-485.49053-3313.6597h16.31999c2.12078 0 3.84001 1.7192 3.84001 3.84v16.32c0 2.1207-1.71923 3.84-3.84001 3.84h-16.31999c-2.12077 0-3.84-1.7193-3.84-3.84v-16.32c0-2.1208 1.71923-3.84 3.84-3.84z" stroke="#fff" stroke-linecap="round" stroke-linejoin="round" stroke-width=".25"/><path d="m-483.55276-3305.5486v8.9446c0 .6454.52111 1.1665 1.16666 1.1665h10.1111c.6456 0 1.1667-.5211 1.1667-1.1665v-8.9446zm0-.7778h12.44446v-.3889c0-.6457-.5211-1.1667-1.1667-1.1667h-10.1111c-.64555 0-1.16666.521-1.16666 1.1667zm13.22223 9.7224c0 1.073-.87112 1.9443-1.94447 1.9443h-10.1111c-1.0733 0-1.94443-.8713-1.94443-1.9443v-10.1113c0-1.0733.87113-1.9444 1.94443-1.9444h10.1111c1.07335 0 1.94447.8711 1.94447 1.9444zm-7-6.5024-1.70334 1.3611c-.17113.1323-.41223.1089-.54443-.0622-.13223-.1711-.1089-.4122.0622-.5445l1.94445-1.5555c.14-.1165.34225-.1165.48225 0l1.9444 1.5555c.17113.1323.19447.381.06224.5445-.13224.1711-.38111.1945-.54444.0622z" fill="#e3e6e1"/></g></svg>

<?xml version="1.0" encoding="UTF-8" standalone="no"?>
<!DOCTYPE svg PUBLIC "-//W3C//DTD SVG 1.1//EN" "http://www.w3.org/Graphics/SVG/1.1/DTD/svg11.dtd">
<svg xmlns="http://www.w3.org/2000/svg" xmlns:xl="http://www.w3.org/1999/xlink" version="1.1" xmlns:dc="http://purl.org/dc/elements/1.1/" viewBox="-489.83053 -3314.1597 25 25" width="25" height="25">
  <defs/>
  <g id="SOURCES" stroke-opacity="1" fill="none" stroke="none" fill-opacity="1" stroke-dasharray="none">
    <title>SOURCES</title>
    <g id="SOURCES_Dark">
      <title>Dark</title>
      <g id="Graphic_11508">
        <path d="M -485.49053 -3313.6597 L -469.17054 -3313.6597 C -467.04976 -3313.6597 -465.33053 -3311.9405 -465.33053 -3309.8197 L -465.33053 -3293.4997 C -465.33053 -3291.379 -467.04976 -3289.6597 -469.17054 -3289.6597 L -485.49053 -3289.6597 C -487.6113 -3289.6597 -489.33053 -3291.379 -489.33053 -3293.4997 L -489.33053 -3309.8197 C -489.33053 -3311.9405 -487.6113 -3313.6597 -485.49053 -3313.6597 Z" fill="#666"/>
        <path d="M -485.49053 -3313.6597 L -469.17054 -3313.6597 C -467.04976 -3313.6597 -465.33053 -3311.9405 -465.33053 -3309.8197 L -465.33053 -3293.4997 C -465.33053 -3291.379 -467.04976 -3289.6597 -469.17054 -3289.6597 L -485.49053 -3289.6597 C -487.6113 -3289.6597 -489.33053 -3291.379 -489.33053 -3293.4997 L -489.33053 -3309.8197 C -489.33053 -3311.9405 -487.6113 -3313.6597 -485.49053 -3313.6597 Z" stroke="white" stroke-linecap="round" stroke-linejoin="round" stroke-width=".25"/>
      </g>
      <g id="Graphic_11507">
        <path d="M -483.55276 -3305.5486 L -483.55276 -3296.604 C -483.55276 -3295.9586 -483.03165 -3295.4375 -482.3861 -3295.4375 L -472.275 -3295.4375 C -471.6294 -3295.4375 -471.1083 -3295.9586 -471.1083 -3296.604 L -471.1083 -3305.5486 Z M -483.55276 -3306.3264 L -471.1083 -3306.3264 L -471.1083 -3306.7153 C -471.1083 -3307.361 -471.6294 -3307.882 -472.275 -3307.882 L -482.3861 -3307.882 C -483.03165 -3307.882 -483.55276 -3307.361 -483.55276 -3306.7153 Z M -470.33053 -3296.604 C -470.33053 -3295.531 -471.20165 -3294.6597 -472.275 -3294.6597 L -482.3861 -3294.6597 C -483.4594 -3294.6597 -484.33053 -3295.531 -484.33053 -3296.604 L -484.33053 -3306.7153 C -484.33053 -3307.7886 -483.4594 -3308.6597 -482.3861 -3308.6597 L -472.275 -3308.6597 C -471.20165 -3308.6597 -470.33053 -3307.7886 -470.33053 -3306.7153 Z M -477.33053 -3303.1064 L -479.03387 -3301.7453 C -479.205 -3301.613 -479.4461 -3301.6364 -479.5783 -3301.8075 C -479.71053 -3301.9786 -479.6872 -3302.2197 -479.5161 -3302.352 L -477.57165 -3303.9075 C -477.43165 -3304.024 -477.2294 -3304.024 -477.0894 -3303.9075 L -475.145 -3302.352 C -474.97387 -3302.2197 -474.95053 -3301.971 -475.08276 -3301.8075 C -475.215 -3301.6364 -475.46387 -3301.613 -475.6272 -3301.7453 Z" fill="#e3e6e1"/>
      </g>
    </g>
  </g>
</svg>
